svg/logo/gumroad_fill.svg

<svg xmlns="http://www.w3.org/2000/svg" width="24" height="24" viewBox="0 0 24 24"><g fill="none" fill-rule="evenodd"><path d="M24,0 L24,24 L0,24 L0,0 L24,0 Z M12.5935,23.2578 L12.5819,23.2595 L12.5109,23.295 L12.4919,23.2987 L12.4767,23.295 L12.4057,23.2595 C12.3958,23.2564 12.387,23.259 12.3821,23.2649 L12.378,23.2758 L12.3609,23.7031 L12.3659,23.7235 L12.3769,23.7357 L12.4805,23.8097 L12.4953,23.8136 L12.5071,23.8097 L12.6107,23.7357 L12.6233,23.7197 L12.6267,23.7031 L12.6096,23.2758 C12.6076,23.2657 12.601,23.2593 12.5935,23.2578 Z M12.8584,23.1453 L12.8445,23.1473 L12.6598,23.2397 L12.6499,23.2499 L12.6472,23.2611 L12.6651,23.6906 L12.6699,23.7034 L12.6784,23.7105 L12.8793,23.8032 C12.8914,23.8069 12.9022,23.803 12.9078,23.7952 L12.9118,23.7812 L12.8777,23.1665 C12.8753,23.1546 12.8674,23.147 12.8584,23.1453 Z M12.143,23.1473 C12.1332,23.1424 12.1222,23.1453 12.1156,23.1526 L12.1099,23.1665 L12.0758,23.7812 C12.0751,23.7927 12.0828,23.8019 12.0926,23.8046 L12.1083,23.8032 L12.3092,23.7105 L12.3186,23.7024 L12.3225,23.6906 L12.3404,23.2611 L12.3372,23.2485 L12.3278,23.2397 L12.143,23.1473 Z"/><path fill="#09244B" d="M22,12 C22,17.5228 17.5228,22 12,22 C6.47715,22 2,17.5228 2,12 C2,6.47715 6.47715,2 12,2 C17.5228,2 22,6.47715 22,12 Z M9.87617,9.30336 C9.36909,9.80686 9,10.5997 9,11.75 C9,12.7512 9.2764,13.5832 9.71059,14.1408 C10.127,14.6756 10.715,15 11.5,15 C11.9808,15 12.5986,14.6504 13.1602,13.9415 C13.4053,13.6321 13.5974,13.3063 13.7356,13 L13,13 C12.4477,13 12,12.5523 12,12 C12,11.4477 12.4477,11 13,11 L15,11 C16.1046,11 17,11.8954 17,13 L17,15.5 C17,16.0523 16.5523,16.5 16,16.5 C15.4477,16.5 15,16.0523 15,15.5 L15,14.8136 C14.9129,14.9411 14.822,15.0647 14.7278,15.1835 C14.002,16.0996 12.8699,17 11.5,17 C10.0758,17 8.9139,16.373 8.13255,15.3696 C7.36903,14.389 7,13.096 7,11.75 C7,10.1503 7.52634,8.81814 8.46697,7.88414 C9.40258,6.95514 10.668,6.5 12,6.5 C12.9214,6.5 13.7847,6.76248 14.5236,7.21663 C14.9391,7.47196 15.4678,7.87066 15.8711,8.37714 C16.2151,8.80921 16.1437,9.43834 15.7116,9.78233 C15.2795,10.1263 14.6504,10.0549 14.3064,9.62286 C14.0959,9.3585 13.7729,9.10279 13.4764,8.92052 C13.0386,8.65144 12.5357,8.5 12,8.5 C11.1229,8.5 10.3883,8.79486 9.87617,9.30336 Z"/></g></svg>

<svg xmlns="http://www.w3.org/2000/svg" width="24" height="24"><g fill="none" fill-rule="evenodd"><path d="M24 0v24H0V0zM12.594 23.258l-.012.002-.071.035-.02.004-.014-.004-.071-.036c-.01-.003-.019 0-.024.006l-.004.01-.017.428.005.02.01.013.104.074.015.004.012-.004.104-.074.012-.016.004-.017-.017-.427c-.002-.01-.009-.017-.016-.018m.264-.113-.014.002-.184.093-.01.01-.003.011.018.43.005.012.008.008.201.092c.012.004.023 0 .029-.008l.004-.014-.034-.614c-.003-.012-.01-.02-.02-.022m-.715.002a.023.023 0 0 0-.027.006l-.006.014-.034.614c0 .012.007.02.017.024l.015-.002.201-.093.01-.008.003-.011.018-.43-.003-.012-.01-.01z"/><path fill="#09244B" d="M22 12c0 5.523-4.477 10-10 10S2 17.523 2 12 6.477 2 12 2s10 4.477 10 10M9.876 9.303C9.37 9.807 9 10.6 9 11.75c0 1.001.276 1.833.71 2.39.417.536 1.005.86 1.79.86.48 0 1.099-.35 1.66-1.059a4.54 4.54 0 0 0 .576-.941H13a1 1 0 1 1 0-2h2a2 2 0 0 1 2 2v2.5a1 1 0 1 1-2 0v-.686a6.467 6.467 0 0 1-.272.37C14.002 16.1 12.87 17 11.5 17c-1.424 0-2.586-.627-3.367-1.63C7.369 14.389 7 13.096 7 11.75c0-1.6.526-2.932 1.467-3.866C9.403 6.955 10.668 6.5 12 6.5c.921 0 1.785.262 2.524.717.415.255.944.654 1.347 1.16a1 1 0 1 1-1.565 1.246c-.21-.264-.533-.52-.83-.702-.437-.27-.94-.421-1.476-.421-.877 0-1.612.295-2.124.803"/></g></svg>
